icons/lines/filter-search.svg

<svg xmlns="http://www.w3.org/2000/svg" width="24" height="24" viewBox="0 0 24 24" fill="none" stroke="currentColor" stroke-width="2" stroke-linecap="round" stroke-linejoin="round" >
  <path d="M14.3196 19.07C14.3196 19.68 13.9195 20.48 13.4095 20.79L11.9996 21.7C10.6896 22.51 8.86957 21.6 8.86957 19.98V14.63C8.86957 13.92 8.46957 13.01 8.05957 12.51L4.21954 8.47C3.70954 7.96 3.30957 7.06001 3.30957 6.45001V4.13C3.30957 2.92 4.21959 2.01001 5.32959 2.01001H18.6696C19.7796 2.01001 20.6896 2.92 20.6896 4.03V6.25C20.6896 7.06 20.1796 8.07001 19.6796 8.57001" stroke-miterlimit="10"/>
  <path d="M16.0701 16.52C17.8374 16.52 19.2701 15.0873 19.2701 13.32C19.2701 11.5527 17.8374 10.12 16.0701 10.12C14.3028 10.12 12.8701 11.5527 12.8701 13.32C12.8701 15.0873 14.3028 16.52 16.0701 16.52Z"/>
  <path d="M19.8701 17.12L18.8701 16.12"/>
  </svg>

<svg xmlns="http://www.w3.org/2000/svg" width="24" height="24" viewBox="0 0 24 24" fill="none" stroke="currentColor" stroke-width="2" stroke-linecap="round" stroke-linejoin="round">
  <path d="M14.32 19.07c0 .61-.4 1.41-.91 1.72L12 21.7c-1.31.81-3.13-.1-3.13-1.72v-5.35c0-.71-.4-1.62-.81-2.12L4.22 8.47c-.51-.51-.91-1.41-.91-2.02V4.13c0-1.21.91-2.12 2.02-2.12h13.34a2 2 0 0 1 2.02 2.02v2.22c0 .81-.51 1.82-1.01 2.32" />
  <path d="m19.87 17.12-1-1" />
  <circle cx="16.07" cy="13.32" r="3.2" />
</svg>
